static/app-icons/light-theme/net.svg

<svg xmlns="http://www.w3.org/2000/svg" viewBox="0 0 32 32"><defs><style>.cls-2{fill:#161616}</style></defs><g id="Layer_2" data-name="Layer 2"><g id="Light_theme_icons" data-name="Light theme icons"><path fill="none" d="M0 0h32v32H0z"/><path class="cls-2" d="M2.122 18.965v-.3a1.155 1.155 0 011.32-1.2 1.155 1.155 0 011.32 1.2v.3a1.155 1.155 0 01-1.32 1.2 1.155 1.155 0 01-1.32-1.2zM6.8 20v-7.875h2.222v1.335h.09a2.149 2.149 0 012.188-1.515c1.6 0 2.46 1.14 2.46 3.12V20h-2.218v-4.755c0-1-.284-1.5-1.1-1.5-.719 0-1.425.375-1.425 1.155V20zM15.247 16.055c0-2.49 1.32-4.11 3.69-4.11 2.61 0 3.66 1.89 3.66 4.02v.66h-5.055v.12a1.547 1.547 0 001.74 1.7 2.5 2.5 0 001.935-.945l1.11 1.38a4.268 4.268 0 01-3.3 1.3c-2.415 0-3.78-1.605-3.78-4.125zm2.3-.855v.12H20.3v-.135c0-.96-.435-1.605-1.321-1.605a1.44 1.44 0 00-1.437 1.62zM26.932 20a2.073 2.073 0 01-2.34-2.3v-3.85h-1.111v-1.725h.556c.6 0 .779-.3.779-.84V10h2v2.129h1.559v1.721h-1.563v4.425h1.44V20z"/></g></g></svg>

<svg xmlns="http://www.w3.org/2000/svg" viewBox="0 0 32 32"><defs><style>.cls-1{fill:none;}.cls-2{fill:#161616;}</style></defs><g id="Layer_2" data-name="Layer 2"><g id="Light_theme_icons" data-name="Light theme icons"><rect class="cls-1" width="32" height="32"/><path class="cls-2" d="M2.122,18.965v-.3a1.155,1.155,0,0,1,1.32-1.2,1.155,1.155,0,0,1,1.32,1.2v.3a1.155,1.155,0,0,1-1.32,1.2A1.155,1.155,0,0,1,2.122,18.965Z"/><path class="cls-2" d="M6.8,20V12.125H9.022V13.46h.09A2.149,2.149,0,0,1,11.3,11.945c1.6,0,2.46,1.14,2.46,3.12V20H11.542V15.245c0-1-.284-1.5-1.1-1.5-.719,0-1.425.375-1.425,1.155V20Z"/><path class="cls-2" d="M15.247,16.055c0-2.49,1.32-4.11,3.69-4.11,2.61,0,3.66,1.89,3.66,4.02v.66H17.542v.12a1.547,1.547,0,0,0,1.74,1.7,2.5,2.5,0,0,0,1.935-.945l1.11,1.38a4.268,4.268,0,0,1-3.3,1.3C16.612,20.18,15.247,18.575,15.247,16.055Zm2.3-.855v.12H20.3v-.135c0-.96-.435-1.605-1.321-1.605A1.44,1.44,0,0,0,17.542,15.2Z"/><path class="cls-2" d="M26.932,20a2.073,2.073,0,0,1-2.34-2.3V13.85H23.481V12.125h.556c.6,0,.779-.3.779-.84V10h2v2.129h1.559V13.85H26.812v4.425h1.44V20Z"/></g></g></svg>
